X: 9056
T: Da Full Rigged Ship
R: jig
M: 6/8
K: Aminor
e|(e2 a) (aea)|(aea) (aba)|e2 ^f g2 g|(gag) (^f2 d)|
(e2 a) (aea)|(aea) (aba)|g2 e e(dB)|A3 E3:|
(efe) (edB)|(A2 B) c3|B2 G B2 G|(Bcd) E3|
(efe) (edB)|(A2 B) (c2 d)|(efe) (dBG)|1 A3 A3:|2 A3 (A2 E)||
(EGE) (EGE)|(EGE) c3|(EGE) (E2 D)|(E2 F) (GEC)|
(EGE) (EGE)|(EGE) (c2 d)|(efe) (dBG)|1 A3 (A2 G):|2 A3 A2||

